html/dist/img/svg/fieldwire-hat.svg

<svg width="404" height="180" viewBox="0 0 404 180" fill="none" xmlns="http://www.w3.org/2000/svg">
<path fill-rule="evenodd" clip-rule="evenodd" d="M246.943 0.880005C251.221 1.49038 254.908 2.17568 255.136 2.40358C263.729 4.0496 283.319 8.70026 292.933 14.1348L299.565 17.8017C324.134 31.3885 346.303 52.7484 361.888 77.8503C374.448 98.0818 384.64 126.805 386.626 147.57C387.426 155.926 387.38 155.85 391.615 155.854C398.975 155.859 403.902 161.079 403.367 168.303C403.009 173.148 401.146 176.127 397.223 178.127C394.67 179.429 383.715 179.506 201.707 179.506C19.6986 179.506 8.74341 179.429 6.1907 178.127C2.26822 176.127 0.404755 173.148 0.0467224 168.303C-0.31604 163.396 1.43542 159.924 5.53613 157.424C7.98157 155.932 9.56195 155.856 38.1612 155.854L68.2162 155.85L68.7604 149.739C70.2548 132.942 77.2268 109.043 85.4022 92.6957C109.622 44.2616 152.907 10.6208 202.496 1.6907C212.728 -0.152257 236.643 -0.588364 246.943 0.880005ZM270.8 97.4943C270.8 93.2311 272.228 90.6067 276.136 87.6857C278.174 86.1629 279.471 86.0509 296.592 85.9279C306.645 85.8561 315.58 85.9863 316.448 86.2173C317.315 86.4484 319.006 87.334 320.206 88.1857C326.478 92.6357 326.272 102.484 319.811 107.092C317.282 108.896 316.889 108.929 297.776 108.929C279.352 108.929 278.201 108.842 276.139 107.303C272.23 104.384 270.8 101.758 270.8 97.4943ZM270.8 129.915C270.8 125.13 272.971 121.534 277.053 119.558C279.971 118.145 281.95 117.998 297.968 117.999C317.785 118 319.565 118.388 322.938 123.438C325.227 126.862 325.335 132.372 323.183 135.9C320.313 140.608 318.982 140.867 297.758 140.864C280.155 140.862 278.39 140.736 276.075 139.325C272.445 137.111 270.8 134.177 270.8 129.915Z" fill="#6496FF"/>
</svg>

<svg width="404" height="180" viewBox="0 0 404 180" fill="none" xmlns="http://www.w3.org/2000/svg"><path fill-rule="evenodd" clip-rule="evenodd" d="M246.943.88c4.278.61 7.965 1.296 8.193 1.524 8.593 1.646 28.183 6.296 37.797 11.73l6.632 3.668c24.569 13.587 46.738 34.946 62.323 60.048 12.56 20.232 22.752 48.955 24.738 69.72.8 8.356.754 8.28 4.989 8.284 7.36.005 12.287 5.225 11.752 12.449-.358 4.845-2.221 7.824-6.144 9.824-2.553 1.302-13.508 1.379-195.516 1.379-182.008 0-192.964-.077-195.516-1.379-3.923-2-5.786-4.979-6.144-9.824-.363-4.907 1.388-8.379 5.49-10.879 2.445-1.492 4.025-1.568 32.624-1.57l30.055-.004.544-6.111c1.495-16.797 8.467-40.696 16.642-57.043 24.22-48.434 67.505-82.075 117.094-91.005C212.728-.152 236.643-.59 246.943.88zM270.8 97.494c0-4.263 1.428-6.887 5.336-9.808 2.038-1.523 3.335-1.635 20.456-1.758 10.053-.072 18.988.058 19.856.29.867.23 2.558 1.116 3.758 1.968 6.272 4.45 6.066 14.298-.395 18.906-2.529 1.804-2.922 1.837-22.035 1.837-18.424 0-19.575-.087-21.637-1.626-3.909-2.919-5.339-5.545-5.339-9.809zm0 32.421c0-4.785 2.171-8.381 6.253-10.357 2.918-1.413 4.897-1.56 20.915-1.559 19.817.001 21.597.389 24.97 5.439 2.289 3.424 2.397 8.934.245 12.462-2.87 4.708-4.201 4.967-25.425 4.964-17.603-.002-19.368-.128-21.683-1.539-3.63-2.214-5.275-5.148-5.275-9.41z" fill="#6496FF"/></svg>
